svgs/sharp-solid/copy.svg

<svg xmlns="http://www.w3.org/2000/svg" viewBox="0 0 448 512"><!--! Font Awesome Pro 6.6.0 by @fontawesome - https://fontawesome.com License - https://fontawesome.com/license (Commercial License) Copyright 2024 Fonticons, Inc. --><path d="M352 0l96 96 0 288-288 0L160 0 352 0zM64 128l64 0 0 64-64 0 0 256 192 0 0-32 64 0 0 32 0 64-64 0L64 512 0 512l0-64L0 192l0-64 64 0z"/></svg>

<svg xmlns="http://www.w3.org/2000/svg" viewBox="0 0 448 512"><!--! Font Awesome Pro 6.4.2 by @fontawesome - https://fontawesome.com License - https://fontawesome.com/license (Commercial License) Copyright 2023 Fonticons, Inc. --><path d="M352 0l96 96V384H160V0H352zM64 128h64v64H64V448H256V416h64v32 64H256 64 0V448 192 128H64z"/></svg>
